src/lib/packages/icons/src/assets/line/money-bill.svg

<svg xmlns="http://www.w3.org/2000/svg" width="24" height="24" fill="none"><path fill="currentColor" d="M12 8.25A3.754 3.754 0 0 0 8.25 12 3.754 3.754 0 0 0 12 15.75 3.754 3.754 0 0 0 15.75 12 3.754 3.754 0 0 0 12 8.25Zm0 6A2.252 2.252 0 0 1 9.75 12 2.252 2.252 0 0 1 12 9.75 2.252 2.252 0 0 1 14.25 12 2.252 2.252 0 0 1 12 14.25Zm6-10H6C3.582 4.25 2.25 5.582 2.25 8v8c0 2.418 1.332 3.75 3.75 3.75h12c2.418 0 3.75-1.332 3.75-3.75V8c0-2.418-1.332-3.75-3.75-3.75ZM20.25 16c0 1.577-.673 2.25-2.25 2.25H6c-1.577 0-2.25-.673-2.25-2.25V8c0-1.577.673-2.25 2.25-2.25h12c1.577 0 2.25.673 2.25 2.25v8ZM7 12a1 1 0 1 1-2 0 1 1 0 0 1 2 0Zm12 0a1 1 0 1 1-2 0 1 1 0 0 1 2 0Z"/></svg>

<svg width="24" height="24" viewBox="0 0 24 24" fill="none" xmlns="http://www.w3.org/2000/svg">
<path d="M12 8.25C9.932 8.25 8.25 9.932 8.25 12C8.25 14.068 9.932 15.75 12 15.75C14.068 15.75 15.75 14.068 15.75 12C15.75 9.932 14.068 8.25 12 8.25ZM12 14.25C10.759 14.25 9.75 13.241 9.75 12C9.75 10.759 10.759 9.75 12 9.75C13.241 9.75 14.25 10.759 14.25 12C14.25 13.241 13.241 14.25 12 14.25ZM18 4.25H6C3.582 4.25 2.25 5.582 2.25 8V16C2.25 18.418 3.582 19.75 6 19.75H18C20.418 19.75 21.75 18.418 21.75 16V8C21.75 5.582 20.418 4.25 18 4.25ZM20.25 16C20.25 17.577 19.577 18.25 18 18.25H6C4.423 18.25 3.75 17.577 3.75 16V8C3.75 6.423 4.423 5.75 6 5.75H18C19.577 5.75 20.25 6.423 20.25 8V16ZM7 12C7 12.552 6.552 13 6 13C5.448 13 5 12.552 5 12C5 11.448 5.448 11 6 11C6.552 11 7 11.448 7 12ZM19 12C19 12.552 18.552 13 18 13C17.448 13 17 12.552 17 12C17 11.448 17.448 11 18 11C18.552 11 19 11.448 19 12Z" fill="currentColor"/>
</svg>
